X:1
T:Gone Fishing
L:1/8
M:4/4
I:linebreak $
K:Bmin
V:1 treble 
V:1
 B,2 FE CD F^A | B^A FE DE CD | B,F (3FFF EF cd- | dc ^AF EF DC | B,2 (3FFF EF C2 |$ DC DF EB, C2 | %6
 z F EC DC DF | (3EFE ^A,B, CD EF :: (3FGF EF GF EG | F2 EF DE C2 |$ z F EF GF EF | %11
 dB FD (3B,CD C2 | (3FGF EF GE F2 | z D C2 D2 E2 | FB, (3B,B,B, FE DC- |$ CD EF (3DED B,2 :| %16
